dist/assets/img/fonds/fd-03.svg

<svg width="70" height="71" viewBox="0 0 70 71" fill="none" xmlns="http://www.w3.org/2000/svg">
<g clip-path="url(#clip0_2_4541)">
<path d="M30 66.502H61.5V9.00195H23.6655C19.4378 9.00195 16.4998 12.3216 16.5 16.4109V66.502H22" stroke="#A7CF43"/>
<path d="M65.5938 63.002L65.5937 4.40039H28.5976C24.4072 4.40039 20.9996 5.30645 20.9998 9.50195" stroke="#A7CF43"/>
<path d="M69.5938 59.002L69.5937 0.400391H32.5976C28.4072 0.400391 24.9996 0.806251 24.9998 5.00176" stroke="#A7CF43"/>
<path d="M56.5 50.502V46.502H48.5V50.502H56.5Z" stroke="#A7CF43"/>
<path d="M45.5 50.502V46.502H21.5V50.502H45.5Z" stroke="#A7CF43"/>
<path d="M25.0996 65.3945L28.5 68.7948V65.0544L25.0996 65.3945Z" stroke="#A7CF43"/>
<path d="M26.9004 65.3945L23.5 65.0544V68.7948L26.9004 65.3945Z" stroke="#A7CF43"/>
<path d="M26.2075 56.6043L26.2071 56.6038C26.0865 56.468 25.9132 56.468 25.7927 56.6038L25.7923 56.6042L25.6344 56.7816C25.6342 56.7818 25.634 56.7821 25.6338 56.7823C25.3987 57.0479 25.0679 57.2303 24.7413 57.3319C24.4141 57.4336 24.0383 57.4708 23.6917 57.39L23.4574 57.3368L23.4574 57.3368L23.4537 57.3359C23.3415 57.3096 23.2622 57.3349 23.2157 57.3673C23.171 57.3984 23.1321 57.452 23.125 57.541C23.125 57.5413 23.125 57.5417 23.125 57.542L23.1085 57.7726L23.1085 57.7726L23.1083 57.7749C23.0811 58.1309 22.9211 58.472 22.7157 58.7423C22.5095 59.0135 22.2239 59.258 21.8923 59.3881L21.8913 59.3884L21.6679 59.4755C21.6678 59.4756 21.6676 59.4757 21.6674 59.4757C21.5624 59.5172 21.5222 59.5776 21.5085 59.618C21.4953 59.6569 21.492 59.7186 21.544 59.7998C21.5442 59.8 21.5443 59.8003 21.5445 59.8005L21.6712 59.995L21.6724 59.9968C21.866 60.2968 21.9474 60.6626 21.9474 61.0014C21.9474 61.34 21.8661 61.7055 21.6727 62.0054C21.6726 62.0056 21.6725 62.0058 21.6724 62.0059L21.5451 62.2043L21.5438 62.2063C21.4919 62.2865 21.4952 62.3472 21.5082 62.3854C21.5218 62.4253 21.562 62.486 21.6678 62.5278C21.668 62.5278 21.6681 62.5279 21.6682 62.5279L21.892 62.6155L21.8924 62.6157C22.2239 62.7459 22.5095 62.9902 22.7158 63.2617C22.9213 63.5321 23.0813 63.8735 23.1083 64.23L23.1085 64.2319L23.125 64.4614C23.125 64.4617 23.125 64.462 23.125 64.4623C23.1321 64.5524 23.1713 64.606 23.2157 64.6369C23.2621 64.6692 23.3415 64.6946 23.4541 64.6683L23.6894 64.6129L23.6908 64.6125C24.0376 64.532 24.4139 64.5694 24.7415 64.6715C25.0675 64.773 25.3977 64.9551 25.6328 65.2203L25.7903 65.3952L25.7903 65.3952L25.794 65.3994C25.9144 65.5361 26.0853 65.5361 26.2057 65.3994L26.2057 65.3994L26.2094 65.3952L26.367 65.2203C26.6021 64.9552 26.9326 64.7732 27.2585 64.6716C27.586 64.5696 27.9625 64.5319 28.3091 64.6126L28.3106 64.6129L28.545 64.6683C28.5451 64.6683 28.5452 64.6683 28.5452 64.6683C28.6577 64.6946 28.7371 64.6692 28.7836 64.6369C28.8283 64.6057 28.8678 64.5516 28.8748 64.4608L28.8749 64.4601L28.8929 64.2315C28.8929 64.2309 28.893 64.2304 28.893 64.2298C28.9194 63.8733 29.0788 63.532 29.2839 63.2616C29.4902 62.9899 29.776 62.7456 30.1079 62.6156L30.1082 62.6154L30.3319 62.528C30.3321 62.5279 30.3323 62.5279 30.3325 62.5278C30.4378 62.4861 30.478 62.4255 30.4917 62.3854C30.5048 62.3469 30.508 62.286 30.4562 62.2059L30.4558 62.2052L30.3272 62.0057L30.3271 62.0055C30.134 61.7056 30.0528 61.3399 30.0528 61.0014C30.0528 60.6628 30.134 60.2972 30.3271 59.9973L30.3271 59.9973L30.3291 59.9941L30.4565 59.7995C30.5081 59.7187 30.5049 59.6568 30.4916 59.6176C30.4778 59.5768 30.4378 59.5169 30.3347 59.4758L30.11 59.389L30.11 59.389L30.108 59.3882C29.7761 59.2582 29.4904 59.0136 29.2844 58.7421C29.0793 58.472 28.9198 58.1309 28.893 57.775L28.8749 57.543L28.8748 57.5424C28.8679 57.4529 28.8288 57.3988 28.7837 57.3674C28.7369 57.3349 28.6575 57.3096 28.5454 57.3359L28.5421 57.3367L28.3083 57.39C27.962 57.4708 27.586 57.4336 27.2589 57.3319C26.9323 57.2304 26.6011 57.048 26.3659 56.7823C26.3657 56.782 26.3655 56.7818 26.3653 56.7816L26.2075 56.6043Z" stroke="#A7CF43"/>
<path d="M24.5 61.0006C24.5 61.83 25.1714 62.502 25.9998 62.502C26.8289 62.502 27.5 61.83 27.5 61.0006C27.5 60.1726 26.8296 59.502 25.9998 59.502C25.1706 59.502 24.5 60.1726 24.5 61.0006Z" stroke="#A7CF43"/>
<path d="M37.6124 58.9737C37.438 59.1878 37.4701 59.5028 37.6842 59.6772C37.8982 59.8516 38.2132 59.8195 38.3876 59.6054L37.6124 58.9737ZM40.3803 60.6941L40.7189 61.0619L40.7832 61.0028L40.8236 60.9252L40.3803 60.6941ZM41.2958 59.9918L40.812 60.118L41.2958 59.9918ZM42.3944 59.2896L42.0005 59.5976L42.3944 59.2896ZM43.493 60.6941L43.0991 61.0021L43.2493 61.1941H43.493V60.6941ZM45.507 57.6043L45.2027 58.0011L45.4876 58.2196L45.7857 58.0195L45.507 57.6043ZM47.8873 56.0595L48.1916 56.4562L47.8873 56.0595ZM51 60.4918C51.2761 60.4918 51.5 60.268 51.5 59.9918C51.5 59.7157 51.2761 59.4918 51 59.4918V60.4918ZM38.3876 59.6054C38.5279 59.4332 38.699 59.2468 38.8705 59.092C39.0516 58.9287 39.1952 58.8354 39.2814 58.8035C39.3213 58.7887 39.3088 58.8024 39.263 58.7942C39.1997 58.7827 39.1503 58.7438 39.1284 58.7126C39.1164 58.6954 39.1354 58.7131 39.1488 58.811C39.1618 58.9051 39.166 59.0465 39.1495 59.249L40.1462 59.3302C40.1664 59.0832 40.1656 58.8642 40.1395 58.6745C40.1139 58.4886 40.0596 58.2991 39.9477 58.1392C39.8259 57.9651 39.6498 57.8478 39.4406 57.8101C39.2488 57.7754 39.0712 57.815 38.9341 57.8657C38.6663 57.9649 38.4087 58.1618 38.2006 58.3496C37.9831 58.5459 37.7772 58.7715 37.6124 58.9737L38.3876 59.6054ZM39.1495 59.249C39.1112 59.7198 39.1172 60.0935 39.1639 60.3857C39.2088 60.6672 39.3012 60.9369 39.4931 61.1267C39.7149 61.3462 39.9945 61.3876 40.2297 61.3329C40.4381 61.2845 40.6061 61.1657 40.7189 61.0619L40.0417 60.3262C40.0019 60.3628 39.9838 60.3634 40.0033 60.3589C40.0497 60.3481 40.1378 60.3579 40.1964 60.4158C40.225 60.4441 40.1824 60.4224 40.1514 60.2281C40.1221 60.0446 40.1114 59.7583 40.1462 59.3302L39.1495 59.249ZM40.8236 60.9252C40.9401 60.7019 41.1059 60.4376 41.2351 60.3033C41.2647 60.2724 41.2795 60.2624 41.2786 60.2629C41.2773 60.2638 41.2665 60.2707 41.2467 60.2784C41.2268 60.286 41.1919 60.2965 41.1451 60.2983C41.0304 60.3029 40.9244 60.2533 40.8579 60.1816C40.8079 60.1278 40.804 60.0877 40.812 60.118L41.7796 59.8657C41.7509 59.7556 41.6986 59.6175 41.5909 59.5014C41.4667 59.3675 41.2938 59.2916 41.1054 59.2991C40.9428 59.3056 40.8141 59.3722 40.7336 59.4245C40.6483 59.4799 40.5746 59.5474 40.5142 59.6102C40.2833 59.8503 40.0646 60.2181 39.9369 60.4629L40.8236 60.9252ZM40.812 60.118C40.8284 60.1809 40.8531 60.2587 40.8945 60.3337C40.9314 60.4004 41.0194 60.5344 41.194 60.6013C41.3968 60.6791 41.5763 60.6168 41.6785 60.5544C41.7694 60.4989 41.8296 60.4281 41.8613 60.3877C41.9272 60.3033 41.9831 60.1996 42.0223 60.1243C42.0442 60.0823 42.0666 60.0379 42.0876 59.9963C42.1092 59.9535 42.13 59.9124 42.1511 59.8719C42.1941 59.7894 42.2328 59.7207 42.2689 59.6668C42.3081 59.6083 42.3268 59.5941 42.321 59.5985C42.3099 59.6071 42.2311 59.6604 42.1111 59.6395C42.0035 59.6208 41.971 59.5599 42.0005 59.5976L42.7882 58.9815C42.6804 58.8437 42.5163 58.6951 42.2828 58.6544C42.0369 58.6115 41.838 58.7088 41.7124 58.8051C41.5922 58.8973 41.5022 59.0147 41.4384 59.1099C41.3715 59.2096 41.3129 59.3164 41.2644 59.4095C41.2398 59.4568 41.2162 59.5035 41.1948 59.5457C41.173 59.5891 41.1538 59.627 41.1357 59.6619C41.1175 59.6968 41.1027 59.7239 41.0903 59.7448C41.0773 59.767 41.0719 59.7737 41.0736 59.7716C41.0748 59.77 41.081 59.7621 41.0923 59.7511C41.103 59.7406 41.1247 59.7209 41.1576 59.7008C41.2284 59.6576 41.3779 59.6008 41.552 59.6676C41.6981 59.7236 41.7588 59.8301 41.77 59.8503C41.7856 59.8786 41.7861 59.8906 41.7796 59.8657L40.812 60.118ZM42.0005 59.5976C42.44 60.1594 42.916 60.768 43.0991 61.0021L43.8868 60.386C43.7037 60.1519 43.2276 59.5433 42.7882 58.9815L42.0005 59.5976ZM43.493 61.1941C43.7636 61.1941 44.0813 61.1572 44.3875 61.06C44.6908 60.9638 45.0167 60.7972 45.2596 60.5138C45.5141 60.2169 45.6448 59.8287 45.6027 59.3688C45.5623 58.9264 45.3649 58.4369 45.0104 57.8931L44.1727 58.4391C44.4773 58.9065 44.5867 59.2386 44.6069 59.4598C44.6255 59.6635 44.5708 59.7809 44.5003 59.8631C44.4181 59.9589 44.2794 60.0452 44.085 60.1069C43.8934 60.1677 43.6801 60.1941 43.493 60.1941V61.1941ZM45.0104 57.8931C44.8516 57.6493 44.7389 57.4567 44.6628 57.3074C44.5842 57.1531 44.5552 57.0657 44.5471 57.0278C44.5433 57.0101 44.5485 57.0229 44.5453 57.056C44.5418 57.0917 44.5269 57.1629 44.4697 57.2357C44.4099 57.3119 44.334 57.3512 44.2743 57.3678C44.2213 57.3825 44.1855 57.3787 44.1818 57.3783C44.1761 57.3777 44.1831 57.3779 44.2056 57.3849C44.2272 57.3916 44.2563 57.4024 44.2933 57.4186C44.3679 57.4514 44.459 57.4994 44.5626 57.561C44.7697 57.6841 44.9994 57.8451 45.2027 58.0011L45.8113 57.2076C45.5875 57.0359 45.3243 56.8505 45.0736 56.7014C44.9484 56.627 44.8194 56.5575 44.6953 56.503C44.578 56.4515 44.4343 56.3994 44.2873 56.3838C44.1529 56.3696 43.8746 56.3746 43.6834 56.6179C43.5092 56.8396 43.5397 57.0999 43.5695 57.2381C43.6337 57.5368 43.8439 57.9348 44.1727 58.4391L45.0104 57.8931ZM45.7857 58.0195C46.2734 57.6921 46.9767 57.2228 47.5025 56.8778C47.767 56.7042 47.9811 56.5657 48.1005 56.4921C48.1303 56.4738 48.1503 56.4618 48.162 56.4552C48.1682 56.4516 48.168 56.4519 48.1635 56.4542C48.1612 56.4553 48.1542 56.4588 48.144 56.4632C48.1382 56.4658 48.1106 56.4778 48.0724 56.4873C48.0549 56.4917 48.0111 56.5019 47.9537 56.502C47.9135 56.502 47.7544 56.4991 47.6141 56.3691C47.4399 56.2079 47.4442 56.002 47.4635 55.9052C47.4809 55.8181 47.5175 55.7581 47.5292 55.7393C47.5572 55.6945 47.5859 55.6653 47.5901 55.661C47.5996 55.6512 47.6068 55.6446 47.609 55.6426C47.6148 55.6375 47.6102 55.6419 47.583 55.6627L48.1916 56.4562C48.2194 56.4349 48.2519 56.4094 48.2784 56.3855C48.2859 56.3788 48.2973 56.3683 48.31 56.3551C48.3173 56.3475 48.3482 56.3158 48.3774 56.269C48.3897 56.2492 48.4267 56.1884 48.4442 56.1006C48.4637 56.0032 48.4679 55.7968 48.2934 55.6353C48.1526 55.505 47.993 55.5019 47.952 55.502C47.8938 55.5021 47.8489 55.5124 47.8301 55.5171C47.7659 55.5331 47.7147 55.5606 47.7128 55.5615C47.696 55.57 47.6799 55.5789 47.667 55.5863C47.6405 55.6014 47.6091 55.6203 47.5758 55.6409C47.4426 55.7229 47.2173 55.8688 46.9539 56.0417C46.4238 56.3895 45.7172 56.8611 45.2284 57.1892L45.7857 58.0195ZM47.583 55.6627C47.4005 55.8028 47.0743 56.1361 46.7434 56.5301C46.4055 56.9326 46.0277 57.4397 45.7539 57.9457C45.617 58.1987 45.4986 58.465 45.4272 58.7276C45.357 58.9858 45.3222 59.2774 45.3945 59.5605C45.4722 59.8641 45.6631 60.116 45.9598 60.2786C46.2381 60.4311 46.5836 60.4918 46.9718 60.4918V59.4918C46.6735 59.4918 46.5154 59.4428 46.4404 59.4017C46.3837 59.3706 46.3716 59.345 46.3634 59.3128C46.3499 59.2602 46.3465 59.1579 46.3922 58.9899C46.4367 58.8262 46.5186 58.6338 46.6334 58.4216C46.8631 57.9972 47.1949 57.5475 47.5092 57.1732C47.8306 56.7904 48.0995 56.5268 48.1916 56.4562L47.583 55.6627ZM46.9718 60.4918C47.6621 60.4918 48.0019 60.4744 48.141 60.461C48.1594 60.4593 48.1776 60.4573 48.1946 60.455C48.2016 60.454 48.2397 60.4492 48.2812 60.4372C48.2919 60.4342 48.3228 60.4251 48.3596 60.4076C48.3773 60.3991 48.414 60.3806 48.4546 60.3485C48.486 60.3238 48.5808 60.2443 48.6243 60.0986C48.681 59.9086 48.6157 59.7356 48.5237 59.6289C48.4518 59.5456 48.3719 59.5089 48.3444 59.4969C48.2819 59.4697 48.2283 59.4621 48.218 59.4606C48.1645 59.4526 48.1166 59.455 48.1145 59.4551C48.0573 59.4569 47.9735 59.4662 47.8847 59.4833C47.7952 59.5004 47.6752 59.5302 47.5568 59.5824C47.4495 59.6297 47.2764 59.7243 47.1636 59.9081C47.0259 60.1326 47.0374 60.3877 47.1448 60.6041C47.2376 60.7908 47.3992 60.9498 47.583 61.0908L48.1916 60.2973C48.0551 60.1926 48.0335 60.1453 48.0405 60.1592C48.0621 60.2028 48.085 60.3185 48.016 60.4311C47.9719 60.503 47.9246 60.5131 47.9604 60.4973C47.985 60.4865 48.0252 60.4745 48.073 60.4654C48.1216 60.456 48.1522 60.4544 48.1465 60.4546C48.1445 60.4546 48.1387 60.4548 48.1303 60.4547C48.1269 60.4546 48.1018 60.4544 48.0692 60.4495C48.06 60.4481 48.0072 60.4407 47.9453 60.4138C47.9179 60.4019 47.8382 60.3653 47.7665 60.2821C47.6745 60.1755 47.6094 60.0027 47.666 59.8128C47.7094 59.6673 47.8041 59.5879 47.8353 59.5633C47.8758 59.5314 47.9122 59.513 47.9295 59.5048C47.9656 59.4876 47.9955 59.4789 48.0049 59.4762C48.0531 59.4623 48.0879 59.4616 48.0456 59.4656C47.9558 59.4742 47.6548 59.4918 46.9718 59.4918V60.4918ZM47.583 61.0908C48.4598 61.7633 49.3888 61.4832 50.0182 61.1549C50.3359 60.9892 50.6196 60.7905 50.8214 60.6527C50.9286 60.5795 51.0041 60.5293 51.061 60.4969C51.0887 60.4811 51.1003 60.4764 51.0998 60.4766C51.0989 60.4769 51.0905 60.4802 51.076 60.4836C51.0618 60.4869 51.0354 60.4918 51 60.4918V59.4918C50.889 59.4918 50.7957 59.5219 50.7377 59.5445C50.675 59.5688 50.6163 59.5994 50.5664 59.6278C50.4681 59.6837 50.3591 59.7575 50.2574 59.8269C50.0415 59.9744 49.8102 60.1356 49.5557 60.2683C49.0407 60.5369 48.5965 60.6079 48.1916 60.2973L47.583 61.0908Z" fill="#A7CF43"/>
<path d="M38 63.002H51V64.002H38V63.002Z" fill="#A7CF43"/>
<path fill-rule="evenodd" clip-rule="evenodd" d="M20.9735 18.002H57V19.0525H20.9735V18.002ZM20.9735 20.627H57V21.6775H20.9735V20.627ZM57 23.2559H20.9735V24.3064H57V23.2559ZM20.9735 25.8818H57V26.9324H20.9735V25.8818ZM57 28.5068H20.9735V29.5574H57V28.5068ZM20.9735 31.1318H57V32.1838H20.9735V31.1318ZM57 33.762H20.9735V34.8125H57V33.762ZM20.9735 36.387H57V37.4379H20.9735V36.387ZM57 39.012H38.9863V40.0625H57V39.012Z" fill="#A7CF43"/>
<path d="M13.5 64.502V37.502H11.5V64.502H13.5Z" stroke="#A7CF43"/>
<path d="M11 65.002H14V67.002H11V65.002Z" fill="#A7CF43"/>
<path d="M12.144 34.002H12.8578L14 37.002H11L12.144 34.002Z" fill="#A7CF43"/>
<path d="M10.3105 59.5468L11 59.002L11 61.666H10.3105V59.5468Z" fill="#A7CF43"/>
<path d="M10 50.7419H10.3086V61.9249H10V50.7419Z" fill="#A7CF43"/>
<path d="M10.3105 52.3821V51.3801C10.5266 51.4477 10.6846 51.6442 10.6846 51.8801C10.6846 52.117 10.5266 52.3174 10.3105 52.3821Z" fill="#A7CF43"/>
</g>
<defs>
<clipPath id="clip0_2_4541">
<rect width="70" height="70" fill="white" transform="translate(0 0.00195312)"/>
</clipPath>
</defs>
</svg>

<svg width="70" height="71" fill="none" xmlns="http://www.w3.org/2000/svg"><g clip-path="url(#clip0_2_4541)"><path d="M30 66.502h31.5v-57.5H23.666c-4.228 0-7.166 3.32-7.166 7.409v50.091H22" stroke="#A7CF43"/><path d="M65.594 63.002V4.4H28.598C24.408 4.4 21 5.306 21 9.502" stroke="#A7CF43"/><path d="M69.594 59.002V.4H32.598C28.408.4 25 .806 25 5.002m31.5 45.5v-4h-8v4h8zm-11 0v-4h-24v4h24zM25.1 65.394l3.4 3.4v-3.74l-3.4.34z" stroke="#A7CF43"/><path d="M26.9 65.394l-3.4-.34v3.74l3.4-3.4z" stroke="#A7CF43"/><path d="M26.207 56.604h0c-.12-.136-.294-.136-.414 0h0l-.159.178s0 0 0 0c-.235.266-.566.448-.893.55a2.044 2.044 0 01-1.05.058l-.234-.053h0l-.003-.001c-.113-.026-.192-.001-.238.031a.22.22 0 00-.091.174v.001l-.017.23h0v.003c-.027.356-.187.697-.392.967a1.972 1.972 0 01-.824.646h0l-.224.087s0 0 0 0c-.106.042-.146.103-.16.143-.013.039-.016.1.036.182 0 0 0 0 0 0l.127.195.001.002c.194.3.275.666.275 1.004 0 .339-.08.705-.274 1.004 0 0 0 0 0 0l-.128.2-.001.001c-.052.08-.049.141-.036.18.014.04.054.1.16.142 0 0 0 0 0 0l.224.087h0c.332.13.617.375.824.647.205.27.365.611.392.968v.002l.017.23s0 0 0 0c.007.09.046.144.09.175.047.032.127.058.24.031l.234-.055h.002a2.04 2.04 0 011.05.058c.326.102.657.284.892.55l.157.174h0l.004.004c.12.137.291.137.412 0h0l.003-.004.158-.175c.235-.265.566-.447.892-.548a2.05 2.05 0 011.05-.06h.002l.234.056s0 0 0 0c.113.027.192.001.239-.031a.22.22 0 00.09-.176h0l.019-.23v-.001c.026-.357.186-.698.39-.968.207-.272.493-.516.825-.646h0l.224-.088s0 0 0 0c.106-.042.146-.102.16-.143.013-.038.016-.099-.036-.18h0l-.129-.2h0a1.875 1.875 0 01-.274-1.004c0-.338.081-.704.274-1.004h0l.002-.003.127-.194c.052-.081.049-.143.036-.182-.014-.041-.054-.101-.157-.142l-.225-.087h0-.002a1.967 1.967 0 01-.824-.647 1.875 1.875 0 01-.391-.967l-.018-.232h0a.222.222 0 00-.091-.176c-.047-.032-.127-.057-.239-.031h-.003l-.234.054c-.346.08-.722.044-1.05-.058-.326-.102-.657-.284-.892-.55 0 0 0 0 0 0l-.159-.178z" stroke="#A7CF43"/><path d="M24.5 61a1.5 1.5 0 103 .003 1.5 1.5 0 00-3-.002z" stroke="#A7CF43"/><path d="M37.612 58.974a.5.5 0 00.776.631l-.776-.631zm2.768 1.72l.339.368.064-.06.04-.077-.443-.23zm.916-.702l-.484.126.484-.126zm1.098-.702l-.393.308.393-.308zm1.099 1.404l-.394.308.15.192h.244v-.5zm2.014-3.09l-.304.397.285.219.298-.2-.279-.416zm2.38-1.544l.305.396-.305-.397zM51 60.492a.5.5 0 100-1v1zm-12.612-.887a4.74 4.74 0 01.483-.513c.18-.163.324-.257.41-.288.04-.015.028-.002-.018-.01a.22.22 0 01-.135-.081c-.012-.018.007 0 .02.098.014.094.018.236.002.438l.996.081a3 3 0 00-.007-.655 1.214 1.214 0 00-.191-.536.782.782 0 00-.507-.329.966.966 0 00-.507.056c-.268.099-.525.296-.733.484a5.786 5.786 0 00-.589.624l.776.631zm.762-.356c-.039.47-.033.844.014 1.137.045.281.137.55.33.74.22.22.5.262.736.207.208-.048.376-.167.489-.271l-.677-.736c-.04.037-.058.037-.039.033a.225.225 0 01.193.057c.029.028-.014.006-.045-.188-.029-.183-.04-.47-.005-.898l-.996-.081zm1.674 1.676c.116-.223.282-.487.411-.622.03-.03.044-.04.044-.04a.32.32 0 01-.133.035.377.377 0 01-.288-.116c-.05-.054-.054-.094-.046-.064l.968-.252a.84.84 0 00-.19-.365.623.623 0 00-.485-.202.74.74 0 00-.371.126 1.27 1.27 0 00-.22.185c-.23.24-.45.608-.577.853l.887.462zm-.012-.807a.91.91 0 00.083.216.58.58 0 00.299.267.549.549 0 00.484-.047.697.697 0 00.183-.166 1.76 1.76 0 00.161-.264l.066-.128.063-.124a2.24 2.24 0 01.118-.205c.04-.059.058-.073.052-.069a.28.28 0 01-.21.041c-.107-.018-.14-.08-.11-.041l.787-.617a.831.831 0 00-.505-.327.726.726 0 00-.57.151c-.12.092-.21.21-.275.305-.067.1-.125.206-.174.3l-.07.136a10.17 10.17 0 01-.104.199l-.016.027a.365.365 0 01.084-.07.451.451 0 01.612.148c.016.029.016.04.01.016l-.968.252zm1.189-.52l1.098 1.404.788-.616-1.099-1.405-.787.617zm1.492 1.596c.27 0 .588-.037.895-.134.303-.096.629-.263.872-.546.254-.297.385-.685.343-1.145-.04-.443-.238-.932-.593-1.476l-.837.546c.304.468.414.8.434 1.02.019.204-.036.322-.107.404-.082.096-.22.182-.415.244-.192.06-.405.087-.592.087v1zm1.517-3.3a6.635 6.635 0 01-.347-.587 1.32 1.32 0 01-.116-.28c-.004-.017.002-.004-.002.029a.381.381 0 01-.271.312.257.257 0 01-.092.01c-.006 0 .001 0 .024.007.021.007.05.017.087.034.075.032.166.08.27.142.207.123.436.284.64.44l.608-.793a7.887 7.887 0 00-.737-.507 3.556 3.556 0 00-.379-.198 1.414 1.414 0 00-.408-.12c-.134-.013-.412-.008-.604.235-.174.222-.143.482-.114.62.065.299.275.697.604 1.201l.837-.546zm.776.126c.487-.328 1.19-.797 1.716-1.142a30.242 30.242 0 01.66-.423c.006-.003.006-.003.002 0-.003 0-.01.004-.02.008a.449.449 0 01-.19.039.499.499 0 01-.425-.763.424.424 0 01.08-.097l-.026.02.609.794a1.473 1.473 0 00.118-.1c.007-.009.038-.04.067-.087a.5.5 0 00-.547-.752c-.064.016-.115.044-.117.045a3.06 3.06 0 00-.137.08c-.133.08-.359.227-.622.4-.53.347-1.237.82-1.726 1.147l.558.83zm1.797-2.357c-.182.14-.509.473-.84.867-.337.403-.715.91-.99 1.416a3.814 3.814 0 00-.326.782c-.07.258-.105.55-.032.832.077.304.268.556.565.719.278.152.624.213 1.012.213v-1c-.299 0-.457-.05-.532-.09-.056-.031-.068-.057-.077-.09-.013-.052-.017-.154.03-.322.044-.164.126-.356.24-.568.23-.425.562-.874.876-1.249.322-.383.59-.646.683-.717l-.609-.793zm-.611 4.829a14.307 14.307 0 001.223-.037c.007-.001.045-.006.086-.018a.502.502 0 00.063-.94.48.48 0 00-.126-.036c-.054-.008-.101-.006-.104-.006a1.56 1.56 0 00-.23.028 1.497 1.497 0 00-.327.1.86.86 0 00-.393.325.706.706 0 00-.02.696c.094.187.255.346.439.487l.609-.794c-.137-.104-.159-.152-.151-.138a.3.3 0 01-.025.272c-.044.072-.091.082-.056.066a.564.564 0 01.113-.032c.049-.009.08-.01.074-.01h-.017c-.003 0-.028 0-.06-.005-.01-.002-.063-.01-.125-.036a.498.498 0 01.06-.938c.048-.014.083-.014.04-.01-.09.008-.39.026-1.073.026v1zm.611.599c.877.672 1.806.392 2.435.064.318-.166.602-.364.803-.502a3.9 3.9 0 01.24-.156c.028-.016.04-.02.039-.02l-.024.007a.337.337 0 01-.076.008v-1a.725.725 0 00-.262.053 1.302 1.302 0 00-.172.083c-.098.056-.207.13-.309.199-.215.147-.447.309-.701.441-.515.269-.96.34-1.364.03l-.609.793zM38 63.002h13v1H38v-1z" fill="#A7CF43"/><path fill-rule="evenodd" clip-rule="evenodd" d="M20.974 18.002H57v1.05H20.974v-1.05zm0 2.625H57v1.05H20.974v-1.05zM57 23.256H20.974v1.05H57v-1.05zm-36.026 2.626H57v1.05H20.974v-1.05zM57 28.507H20.974v1.05H57v-1.05zm-36.026 2.625H57v1.052H20.974v-1.052zM57 33.762H20.974v1.05H57v-1.05zm-36.026 2.625H57v1.05H20.974v-1.05zM57 39.012H38.986v1.05H57v-1.05z" fill="#A7CF43"/><path d="M13.5 64.502v-27h-2v27h2z" stroke="#A7CF43"/><path d="M11 65.002h3v2h-3v-2zm1.144-31h.714l1.142 3h-3l1.144-3zM10.31 59.547l.69-.545v2.664h-.69v-2.12zM10 50.742h.309v11.183H10V50.742zm.31 1.64V51.38a.526.526 0 01.375.5.525.525 0 01-.375.502z" fill="#A7CF43"/></g><defs><clipPath id="clip0_2_4541"><path fill="#fff" transform="translate(0 .002)" d="M0 0h70v70H0z"/></clipPath></defs></svg>
